static/images/skills/bazel.svg

<svg xmlns="http://www.w3.org/2000/svg" xml:space="preserve" style="fill-rule:evenodd;clip-rule:evenodd;stroke-linecap:round;stroke-linejoin:round;stroke-miterlimit:1.5" viewBox="0 0 2400 1800"><path d="M0 0h2400v1800H0z" style="fill:#152c15;fill-opacity:1"/><path d="M495.854 1039.259v135.395l-137.93-137.928V901.33Z" class="dark-green-left" style="fill:#00701a;stroke-width:12.6656"/><path d="m495.854 1039.259 138.055-137.93v135.397l-138.055 137.928z" class="dark-green-right" style="fill:#004300;stroke-width:12.6656"/><path d="M357.925 901.33v135.396L219.996 898.67V763.274Zm413.913-138.056V898.67l-137.929 138.056V901.33Z" class="green" style="fill:#43a047;stroke-width:12.6656"/><path d="m495.854 1039.259-137.93-137.93 137.93-138.055L633.909 901.33Z" class="green" style="fill:#43a047;stroke-width:12.6656"/><path d="M357.925 901.33 219.996 763.274l137.929-137.928 137.929 137.928Z" class="light-green" style="fill:#76d275;stroke-width:12.6656"/><path d="M633.91 901.33 495.853 763.274l138.055-137.928 137.929 137.928Z" class="light-green" style="fill:#76d275;stroke-width:12.6656"/><path d="M949.157 1097.774V693.36h146.541a119.06 119.06 0 0 1 82.327 31.41 101.33 101.33 0 0 1 34.704 78.781 88.66 88.66 0 0 1-14.945 50.663 94.1 94.1 0 0 1-39.897 33.31v2.28a102.47 102.47 0 0 1 49.142 35.084 91.57 91.57 0 0 1 19.252 57.629 106.01 106.01 0 0 1-36.477 82.453 124.25 124.25 0 0 1-86.126 32.804zm51.93-231.148h94.611a60.8 60.8 0 0 0 47.243-19.505 60.035 60.035 0 0 0 0-84.987 58 58 0 0 0-45.47-19.251h-96.385zm0 181.372h104.617a61.94 61.94 0 0 0 48.51-20.898 66.88 66.88 0 0 0 18.745-45.723 68.14 68.14 0 0 0-69.535-66.115h-102.338zm362.236 58.895a109.18 109.18 0 0 1-73.714-25.331 84.35 84.35 0 0 1-29.257-67.381 83.09 83.09 0 0 1 34.957-70.928 141.85 141.85 0 0 1 86.506-25.331 148.3 148.3 0 0 1 74.854 16.085v-7.98a62.19 62.19 0 0 0-21.025-48.888 76 76 0 0 0-51.422-18.366 80.2 80.2 0 0 0-40.91 10.766 55.73 55.73 0 0 0-25.332 29.384l-47.37-20.391a107.53 107.53 0 0 1 37.998-45.977 121.2 121.2 0 0 1 74.6-21.278 128.05 128.05 0 0 1 88.66 31.158 110.95 110.95 0 0 1 34.957 87.52v167.819h-50.156v-37.997h-2.28a101.96 101.96 0 0 1-91.066 47.116m8.486-47.496a84.35 84.35 0 0 0 58.516-24.065 74.6 74.6 0 0 0 26.344-56.742 102.6 102.6 0 0 0-66.241-18.112 86 86 0 0 0-56.995 16.34 49.65 49.65 0 0 0-19.252 37.996 36.86 36.86 0 0 0 17.478 33.184 70.67 70.67 0 0 0 40.15 11.4m185.425 37.997v-44.836L1714.922 868.4h-153.255v-47.496h217.09v45.216l-157.688 184.159h159.967v47.496zm393.269 9.12a133.5 133.5 0 0 1-101.959-41.924 148.06 148.06 0 0 1-39.263-105.631 152 152 0 0 1 37.997-103.985 123.87 123.87 0 0 1 97.018-43.19 127.8 127.8 0 0 1 98.666 40.15 152 152 0 0 1 37.49 107.405v9.625H1861.21a94.36 94.36 0 0 0 27.99 66.368 84.73 84.73 0 0 0 60.163 24.318q55.982 0 75.994-47.496l45.596 18.999a124.25 124.25 0 0 1-44.71 53.955 129.95 129.95 0 0 1-75.74 21.785zm74.6-180.866a73.6 73.6 0 0 0-21.785-45.216 77.5 77.5 0 0 0-59.528-21.532 74.6 74.6 0 0 0-50.663 18.112 91.32 91.32 0 0 0-29.13 48.636zm154.901 171.746h-52.056V693.36h52.056z" class="wordmark" style="fill:#fff;stroke-width:12.6656"/></svg>

<?xml version="1.0" encoding="UTF-8" standalone="no"?>
<!DOCTYPE svg PUBLIC "-//W3C//DTD SVG 1.1//EN" "http://www.w3.org/Graphics/SVG/1.1/DTD/svg11.dtd">
<svg width="100%" height="100%" viewBox="0 0 1200 900" version="1.1" xmlns="http://www.w3.org/2000/svg" xmlns:xlink="http://www.w3.org/1999/xlink" xml:space="preserve" xmlns:serif="http://www.serif.com/" style="fill-rule:evenodd;clip-rule:evenodd;stroke-linejoin:round;stroke-miterlimit:2;">
    <rect x="0" y="0" width="1200" height="900" style="fill:rgb(21,44,21);"/>
    <g transform="matrix(4.79233,0,0,4.79233,293.291,143.291)">
        <g transform="matrix(0.226877,0,0,0.226877,-48.5119,-140.189)">
            <path d="M495.854,1039.26L495.854,1174.65L357.924,1036.73L357.924,901.33L495.854,1039.26Z" style="fill:rgb(0,112,26);"/>
        </g>
        <g transform="matrix(0.226877,0,0,0.226877,-48.5119,-140.189)">
            <path d="M495.854,1039.26L633.909,901.329L633.909,1036.73L495.854,1174.65L495.854,1039.26Z" style="fill:rgb(0,67,0);"/>
        </g>
        <g transform="matrix(0.226877,0,0,0.226877,-48.5119,-140.189)">
            <path d="M357.925,901.33L357.925,1036.73L219.996,898.67L219.996,763.274L357.925,901.33ZM771.838,763.274L771.838,898.67L633.909,1036.73L633.909,901.33L771.838,763.274Z" style="fill:rgb(67,160,71);"/>
        </g>
        <g transform="matrix(0.226877,0,0,0.226877,-48.5119,-140.189)">
            <path d="M495.854,1039.26L357.924,901.329L495.854,763.274L633.909,901.33L495.854,1039.26Z" style="fill:rgb(67,160,71);"/>
        </g>
        <g transform="matrix(0.226877,0,0,0.226877,-48.5119,-140.189)">
            <path d="M357.925,901.33L219.996,763.274L357.925,625.346L495.854,763.274L357.925,901.33Z" style="fill:rgb(118,210,117);"/>
        </g>
        <g transform="matrix(0.226877,0,0,0.226877,-48.5119,-140.189)">
            <path d="M633.91,901.33L495.853,763.274L633.908,625.346L771.837,763.274L633.91,901.33Z" style="fill:rgb(118,210,117);"/>
        </g>
    </g>
</svg>
